X:0348
T:Saw ye Johnny Coming co she.
M:C
L:1/8
Q:1/4=90
I: :: ::
Z:Jack Campin * www.campin.me.uk * 2009
K:G
z|G2 A>B d>(BB>)g  |G2(AB) c<A z:|
f|g>fed  e>dBf     |g>agf  e<B z
f|gfed   ef g2{bc'}|zG A>B d<BB>g|zG A>B cBz:|
<end>
<start>
